X:1
T:The Golden Eagle
R:Hornpipe
Z:Erik Ronstrm
O:Irland / USA
M:4/4
L:1/8
K:G
(3cBA|GB,DG (3BdBGB|DGBd gbag|fdcA FD(3cBA|(3BcdAG FD(3cBA|
GB,DG (3BdBGB|DGBd gbag|fed^c =cAFD|G2 B2 G2::(3bbb|bB^df bfdf|
e^def gfg^g|ae^ce afge|(3ded^ce d2 AB|cAfd ^cdef|gfga bgag|
fed^c =cAFD|G2 B2 G2:|
